svgs/sharp-light/pager.svg

<svg xmlns="http://www.w3.org/2000/svg" viewBox="0 0 512 512"><!--! Font Awesome Pro 6.6.0 by @fontawesome - https://fontawesome.com License - https://fontawesome.com/license (Commercial License) Copyright 2024 Fonticons, Inc. --><path d="M480 96l0 320L32 416 32 96l448 0zM32 64L0 64 0 96 0 416l0 32 32 0 448 0 32 0 0-32 0-320 0-32-32 0L32 64zM64 320l0 32 16 0 64 0 16 0 0-32-16 0-64 0-16 0zm128 0l0 32 16 0 64 0 16 0 0-32-16 0-64 0-16 0zM96 160l320 0 0 96L96 256l0-96zM64 128l0 32 0 96 0 32 32 0 320 0 32 0 0-32 0-96 0-32-32 0L96 128l-32 0z"/></svg>

<svg xmlns="http://www.w3.org/2000/svg" viewBox="0 0 512 512"><!--! Font Awesome Pro 6.4.2 by @fontawesome - https://fontawesome.com License - https://fontawesome.com/license (Commercial License) Copyright 2023 Fonticons, Inc. --><path d="M480 96V416H32V96H480zM32 64H0V96 416v32H32 480h32V416 96 64H480 32zM64 320v32H80h64 16V320H144 80 64zm128 0v32h16 64 16V320H272 208 192zM96 160H416v96H96V160zM64 128v32 96 32H96 416h32V256 160 128H416 96 64z"/></svg>
